X: 42569
T: When Sick Is It Tea That You Want?
R: jig
M: 6/8
K: Dmajor
|:F/G/|A2d dcB|AFB AFG|Add cde|fdB BAF|
A2d dcB|AFB AFG|Add cde|fdc d2:|
|:f/g/|afd dcd|BGF Gga|bge ege|cAA ABA|
FAd fdB|AFB AFG|A2d cde|fdc d2:|

